; generated by PrusaSlicer 2.5.0+win64 on 2023-03-14 at 18:22:51 UTC


;
;
; 

; external perimeters extrusion width = 0.45mm
; perimeters extrusion width = 0.45mm
; infill extrusion width = 0.45mm
; solid infill extrusion width = 0.45mm
; top infill extrusion width = 0.40mm
; first layer extrusion width = 0.42mm

M73 P0 R69
M73 Q0 S70
M201 X1000 Y1000 Z200 E5000 ; sets maximum accelerations, mm/sec^2
M203 X200 Y200 Z12 E120 ; sets maximum feedrates, mm / sec
M204 P1250 R1250 T1250 ; sets acceleration (P, T) and retract acceleration (R), mm/sec^2
M205 X8.00 Y8.00 Z0.40 E4.50 ; sets the jerk limits, mm/sec
M205 S0 T0 ; sets the minimum extruding and travel feed rate, mm/sec
M107
;TYPE:Custom
M862.3 P "MK3" ; printer model check
M862.1 P0.4 ; nozzle diameter check
M115 U3.11.0 ; tell printer latest fw version
G90 ; use absolute coordinates
M83 ; extruder relative mode
M104 S230 ; set extruder temp
M140 S85 ; set bed temp
M190 S85 ; wait for bed temp
M109 S230 ; wait for extruder temp
G28 W ; home all without mesh bed level
G80 ; mesh bed leveling

G1 Z0.2 F720
G1 Y-3 F1000 ; go outside print area
G92 E0
G1 X60 E9 F1000 ; intro line
G1 X100 E12.5 F1000 ; intro line

G92 E0
M221 S95

; Don't change E values below. Excessive value can damage the printer.

M907 E538 ; set extruder motor current
G21 ; set units to millimeters
G90 ; use absolute coordinates
M83 ; use relative distances for extrusion
M900 K0.08 ; Filament gcode LA 1.5
M900 K45 ; Filament gcode LA 1.0
M107
;LAYER_CHANGE
;Z:0.2
;HEIGHT:0.2
;BEFORE_LAYER_CHANGE
G92 E0.0
;0.2


M73 Q0 S69
G1 E-1 F2100
G1 Z.2 F720
;AFTER_LAYER_CHANGE
;0.2
G1 Z.4
G1 X92.581 Y78.921 F10800
G1 Z.2 F720
G1 E1 F2100
M204 S800
;TYPE:Skirt/Brim
;WIDTH:0.42
G1 F1200
G1 X93.387 Y78.195 E.03401
G1 X106.932 Y70.731 E.48491
G1 X110.427 Y69.031 E.12186
G1 X113.969 Y67.735 E.11825
G1 X117.529 Y66.819 E.11528
G1 X121.218 Y66.256 E.117
G1 X125.011 Y66.064 E.11908
G1 X128.755 Y66.253 E.11753
G1 X132.471 Y66.819 E.11785
G1 X136.031 Y67.735 E.11528
G1 X139.573 Y69.031 E.11825
G1 X143.068 Y70.731 E.12186
G1 X156.613 Y78.195 E.48491
G1 X157.419 Y78.921 E.03401
G1 X159.34 Y81.702 E.10598
G1 X160.931 Y84.458 E.09978
G1 X162.379 Y87.512 E.10598
G1 X162.605 Y88.573 E.03401
G1 X162.296 Y104.035 E.48491
G1 X162.05 Y107.673 E.11433
G1 X161.425 Y111.393 E.11825
G1 X160.385 Y115.169 E.12281
G1 X159.099 Y118.478 E.11132
G1 X157.194 Y122.197 E.13101
G1 X155.243 Y125.201 E.11231
G1 X152.821 Y128.209 E.12108
G1 X150.164 Y130.897 E.11851
G1 X147.255 Y133.298 E.11825
G1 X144.228 Y135.33 E.11433
G1 X130.992 Y143.329 E.48491
G1 X129.96 Y143.664 E.03401
G1 X126.789 Y143.928 E.09978
G1 X123.409 Y143.937 E.10598
G1 X120.04 Y143.664 E.10598
G1 X119.008 Y143.329 E.03401
G1 X105.675 Y135.268 E.48851
G1 X102.552 Y133.154 E.11825
G1 X99.659 Y130.734 E.11825
G1 X97.085 Y128.108 E.11528
G1 X94.631 Y125.019 E.1237
G1 X92.69 Y122.007 E.11237
G1 X90.968 Y118.639 E.11858
G1 X89.617 Y115.176 E.11654
G1 X88.575 Y111.393 E.12306
G1 X87.95 Y107.673 E.11825
G1 X87.709 Y104.15 E.11072
G1 X87.395 Y88.573 E.48851
G1 X87.621 Y87.512 E.03401
G1 X88.977 Y84.633 E.09978
G1 X90.66 Y81.702 E.10598
G1 X92.547 Y78.97 E.1041
M204 S1000
; printing object S1B_Motor_Casing_Centering_Ring_Jig_Top.STL id:0 copy 0
;WIPE_START
G1 F8640
G1 X93.387 Y78.195 E-.26394
G1 X95.989 Y76.761 E-.68606
;WIPE_END
G1 E-.05 F2100
G1 Z.4 F720
G1 X156.594 Y89.824 F10800
G1 Z.2 F720
G1 E1 F2100
M204 S800
;TYPE:Perimeter
;WIDTH:0.419999
G1 F1200
G1 X156.514 Y90.022 E.0067
G1 X156.541 Y90.277 E.00806
G1 X157.754 Y93.746 E.11523
G1 X158.558 Y97.103 E.10822
G1 X159.018 Y100.524 E.10823
G1 X159.131 Y103.974 E.10823
G1 X158.896 Y107.417 E.10823
G1 X158.313 Y110.82 E.10822
G1 X157.387 Y114.154 E.1085
G1 X156.136 Y117.362 E.10797
G1 X154.563 Y120.435 E.10823
G1 X152.689 Y123.333 E.10821
G1 X150.533 Y126.024 E.1081
G1 X148.112 Y128.489 E.10835
G1 X145.457 Y130.694 E.10822
G1 X142.592 Y132.62 E.10823
G1 X139.548 Y134.247 E.10823
G1 X136.355 Y135.559 E.10823
G1 X133.046 Y136.541 E.10823
G1 X129.436 Y137.225 E.11523
G1 X129.253 Y137.294 E.00613
G1 X129.058 Y137.487 E.00861
G1 X128.975 Y137.781 E.00956
G1 X128.975 Y140.571 E.08747
G1 X126.558 Y140.772 E.07605
G1 X123.442 Y140.772 E.09772
G1 X121.025 Y140.571 E.07605
G1 X121.025 Y137.781 E.08747
G1 X120.979 Y137.559 E.00711
G1 X120.799 Y137.329 E.00915
G1 X120.564 Y137.225 E.00805
G1 X116.954 Y136.541 E.11523
G1 X113.645 Y135.559 E.10823
G1 X110.452 Y134.247 E.10822
G1 X107.408 Y132.62 E.10823
G1 X104.543 Y130.694 E.10823
G1 X101.888 Y128.489 E.10822
G1 X99.467 Y126.024 E.10834
G1 X97.311 Y123.332 E.10813
G1 X95.441 Y120.442 E.10792
G1 X93.864 Y117.361 E.10853
G1 X92.611 Y114.149 E.10809
G1 X91.687 Y110.82 E.10834
G1 X91.104 Y107.417 E.10823
G1 X90.869 Y103.974 E.10823
G1 X90.982 Y100.524 E.10823
G1 X91.442 Y97.103 E.10823
G1 X92.246 Y93.746 E.10823
G1 X93.459 Y90.277 E.11523
G1 X93.491 Y90.084 E.00613
G1 X93.421 Y89.818 E.00861
G1 X93.208 Y89.601 E.00955
G1 X90.792 Y88.206 E.08747
G1 X91.826 Y86.012 E.07605
G1 X93.384 Y83.313 E.09772
G1 X94.767 Y81.32 E.07605
G1 X97.183 Y82.715 E.08747
G1 X97.398 Y82.787 E.0071
G1 X97.687 Y82.746 E.00915
G1 X97.895 Y82.594 E.00806
G1 X100.293 Y79.81 E.11523
G1 X102.798 Y77.435 E.10823
G1 X105.53 Y75.326 E.10822
G1 X108.461 Y73.503 E.10823
G1 X111.561 Y71.985 E.10822
G1 X114.799 Y70.789 E.10823
G1 X118.144 Y69.924 E.10834
G1 X121.553 Y69.403 E.10812
G1 X125.01 Y69.229 E.10854
G1 X128.448 Y69.403 E.10791
G1 X131.851 Y69.923 E.10795
G1 X135.201 Y70.789 E.1085
G1 X138.439 Y71.985 E.10822
G1 X141.539 Y73.503 E.10823
G1 X144.47 Y75.326 E.10823
G1 X147.202 Y77.435 E.10822
G1 X149.707 Y79.81 E.10823
G1 X152.094 Y82.581 E.11467
G1 X152.257 Y82.718 E.00668
G1 X152.522 Y82.791 E.00861
G1 X152.817 Y82.715 E.00955
G1 X155.233 Y81.32 E.08747
G1 X156.616 Y83.313 E.07605
G1 X158.174 Y86.012 E.09772
G1 X159.208 Y88.206 E.07605
G1 X156.792 Y89.601 E.08747
G1 X156.616 Y89.768 E.00762
M204 S1000
G1 X156.91 Y90 F10800
M204 S800
;TYPE:External perimeter
G1 F1200
G1 X156.896 Y90.15 E.00473
G1 X158.116 Y93.64 E.11591
G1 X158.929 Y97.034 E.10942
G1 X159.395 Y100.492 E.10942
G1 X159.509 Y103.98 E.10942
G1 X159.27 Y107.462 E.10942
G1 X158.682 Y110.902 E.10942
G1 X157.746 Y114.273 E.1097
G1 X156.48 Y117.517 E.10916
G1 X154.89 Y120.624 E.10943
M73 P0 R68
G1 X152.995 Y123.553 E.10941
G1 X150.816 Y126.274 E.10929
G1 X148.368 Y128.766 E.10954
G1 X145.683 Y130.996 E.10942
G1 X142.787 Y132.944 E.10942
G1 X139.709 Y134.589 E.10942
G1 X136.481 Y135.915 E.10942
G1 X133.135 Y136.908 E.10942
G1 X129.506 Y137.596 E.11582
G1 X129.417 Y137.639 E.00309
G1 X129.353 Y137.781 E.0049
G1 X129.353 Y140.918 E.09835
G1 X126.574 Y141.149 E.08742
G1 X123.426 Y141.149 E.09871
G1 X120.647 Y140.918 E.08742
G1 X120.647 Y138.25 E.08363
G1 X120.62 Y137.683 E.0178
G1 X120.494 Y137.596 E.00481
G1 X116.865 Y136.908 E.11582
G1 X113.519 Y135.915 E.10942
G1 X110.291 Y134.589 E.10942
G1 X107.213 Y132.944 E.10942
G1 X104.317 Y130.996 E.10942
G1 X101.632 Y128.766 E.10942
G1 X99.184 Y126.274 E.10954
G1 X97.005 Y123.553 E.10932
G1 X95.114 Y120.631 E.10911
G1 X93.519 Y117.516 E.10972
G1 X92.253 Y114.268 E.10929
G1 X91.318 Y110.902 E.10954
G1 X90.73 Y107.462 E.10942
G1 X90.491 Y103.98 E.10942
G1 X90.605 Y100.492 E.10942
G1 X91.071 Y97.034 E.10942
G1 X91.884 Y93.64 E.10942
G1 X92.852 Y90.87 E.092
G1 X93.11 Y90.054 E.02682
G1 X93.019 Y89.927 E.0049
G1 X90.303 Y88.359 E.09835
G1 X91.491 Y85.837 E.08742
G1 X93.065 Y83.11 E.09871
G1 X94.655 Y80.82 E.08742
G1 X96.965 Y82.154 E.08363
G1 X97.47 Y82.414 E.0178
G1 X97.609 Y82.348 E.00481
G1 X100.019 Y79.549 E.11582
G1 X102.552 Y77.148 E.10942
G1 X105.314 Y75.015 E.10942
G1 X108.278 Y73.172 E.10942
G1 X111.413 Y71.638 E.10942
G1 X114.686 Y70.428 E.10942
G1 X118.068 Y69.554 E.10954
G1 X121.515 Y69.027 E.10932
G1 X125.01 Y68.851 E.10973
G1 X128.486 Y69.027 E.10911
G1 X131.927 Y69.553 E.10914
G1 X135.314 Y70.428 E.10969
G1 X138.587 Y71.638 E.10942
M73 Q1 S69
G1 X141.722 Y73.172 E.10942
M73 P1 R68
G1 X144.686 Y75.015 E.10942
G1 X147.448 Y77.148 E.10942
G1 X149.981 Y79.549 E.10942
G1 X151.793 Y81.653 E.08707
G1 X152.473 Y82.404 E.03175
G1 X152.628 Y82.389 E.0049
G1 X155.345 Y80.82 E.09835
G1 X156.935 Y83.11 E.08742
G1 X158.509 Y85.837 E.09871
G1 X159.697 Y88.359 E.08742
G1 X157.387 Y89.693 E.08363
G1 X156.96 Y89.967 E.01592
M204 S1000
G1 X156.76 Y90.018 F10800
;WIPE_START
G1 F8640
G1 X156.896 Y90.15 E-.04471
G1 X158.116 Y93.64 E-.85361
G1 X158.168 Y93.858 E-.05168
;WIPE_END
G1 E-.05 F2100
G1 Z.4 F720
G1 X124.016 Y97.587 F10800
G1 Z.2 F720
G1 E1 F2100
M204 S800
;TYPE:Perimeter
G1 F1200
G1 X124.926 Y97.502 E.02865
G1 X125.887 Y97.571 E.03021
G1 X126.909 Y97.819 E.03297
G1 X127.819 Y98.221 E.0312
G1 X128.484 Y98.661 E.02498
G1 X128.722 Y98.832 E.00921
G1 X129.372 Y99.454 E.0282
G1 X129.97 Y100.249 E.0312
G1 X130.425 Y101.134 E.0312
G1 X130.744 Y102.177 E.03419
G1 X130.859 Y103.069 E.0282
G1 X130.824 Y104.063 E.0312
G1 X130.685 Y104.75 E.02199
G1 X130.595 Y105.129 E.0122
G1 X130.259 Y105.964 E.0282
G1 X129.738 Y106.826 E.03159
G1 X129.024 Y107.634 E.0338
G1 X128.324 Y108.199 E.0282
G1 X127.46 Y108.691 E.0312
G1 X126.441 Y109.052 E.03388
G1 X125.545 Y109.206 E.02851
G1 X124.499 Y109.212 E.03282
G1 X123.568 Y109.054 E.02958
G1 X122.572 Y108.707 E.03308
G1 X121.755 Y108.252 E.02932
G1 X120.976 Y107.634 E.0312
G1 X120.312 Y106.892 E.0312
G1 X119.798 Y106.071 E.03038
G1 X119.406 Y105.132 E.03192
G1 X119.188 Y104.158 E.03128
G1 X119.137 Y103.165 E.0312
G1 X119.256 Y102.177 E.0312
G1 X119.539 Y101.223 E.0312
G1 X119.98 Y100.331 E.0312
G1 X120.565 Y99.526 E.0312
G1 X121.278 Y98.832 E.0312
G1 X122.097 Y98.268 E.0312
G1 X122.954 Y97.872 E.02957
G1 X123.957 Y97.594 E.03264
M204 S1000
G1 X124.072 Y97.956 F10800
M204 S800
;TYPE:External perimeter
G1 F1200
G1 X124.958 Y97.878 E.02787
G1 X125.857 Y97.947 E.02827
G1 X126.814 Y98.184 E.03091
G1 X127.664 Y98.565 E.0292
G1 X128.272 Y98.973 E.02298
G1 X128.461 Y99.104 E.00721
G1 X129.111 Y99.726 E.0282
G1 X129.667 Y100.473 E.0292
G1 X130.088 Y101.304 E.0292
G1 X130.37 Y102.225 E.0302
G1 X130.484 Y103.117 E.0282
G1 X130.448 Y104.047 E.0292
G1 X130.316 Y104.671 E.02
G1 X130.245 Y104.988 E.0102
G1 X129.909 Y105.823 E.0282
G1 X129.424 Y106.617 E.0292
G1 X128.787 Y107.34 E.0302
G1 X128.088 Y107.905 E.0282
G1 X127.276 Y108.362 E.0292
G1 X126.399 Y108.675 E.0292
G1 X125.482 Y108.835 E.0292
G1 X124.55 Y108.837 E.0292
G1 X123.632 Y108.683 E.0292
G1 X122.753 Y108.375 E.0292
G1 X121.939 Y107.923 E.0292
G1 X121.213 Y107.34 E.0292
G1 X120.595 Y106.643 E.0292
G1 X120.119 Y105.874 E.02838
G1 X119.756 Y104.989 E.02997
G1 X119.556 Y104.079 E.02923
G1 X119.514 Y103.149 E.0292
G1 X119.63 Y102.225 E.0292
G1 X119.9 Y101.333 E.0292
G1 X120.317 Y100.501 E.0292
G1 X120.868 Y99.75 E.0292
G1 X121.539 Y99.104 E.0292
G1 X122.309 Y98.58 E.0292
G1 X123.109 Y98.216 E.02758
G1 X124.014 Y97.969 E.02942
M204 S1000
G1 X124.21 Y97.58 F10800
;WIPE_START
G1 F8640
G1 X124.958 Y97.878 E-.21897
G1 X125.857 Y97.947 E-.20817
G1 X126.814 Y98.184 E-.22763
G1 X127.664 Y98.565 E-.21502
G1 X127.952 Y98.758 E-.08022
;WIPE_END
G1 E-.05 F2100
G1 Z.4 F720
G1 X154.709 Y81.753 F10800
G1 Z.2 F720
G1 E1 F2100
M204 S800
;TYPE:Solid infill
;WIDTH:0.421909
G1 F1200
G1 X156.28 Y83.324 E.07001
G1 X156.377 Y83.464 E.00536
G1 X157.051 Y84.631 E.04246
G1 X154.493 Y82.074 E.11397
G1 X154.154 Y82.27 E.01236
G1 X157.783 Y85.899 E.16175
G1 X157.924 Y86.143 E.00887
G1 X158.309 Y86.962 E.02852
G1 X153.814 Y82.466 E.20035
G1 X153.474 Y82.662 E.01236
G1 X158.787 Y87.975 E.23678
G1 X158.842 Y88.091 E.00403
G1 X158.541 Y88.265 E.01095
G1 X153.134 Y82.858 E.24094
G1 X152.778 Y83.038 E.01258
G1 X158.201 Y88.461 E.24169
G1 X157.861 Y88.657 E.01236
G1 X146.298 Y77.094 E.51532
G1 X144.309 Y75.558 E.0792
G1 X144.09 Y75.422 E.00811
G1 X157.521 Y88.853 E.59858
G1 X157.181 Y89.05 E.01236
G1 X142.672 Y74.541 E.64661
G1 X141.293 Y73.697 E.05095
G1 X156.842 Y89.246 E.69294
G1 X156.516 Y89.456 E.01221
G1 X140.243 Y73.183 E.72522
G1 X139.193 Y72.669 E.03684
G1 X156.294 Y89.77 E.76213
G1 X156.258 Y89.858 E.00298
G1 X156.226 Y90.082 E.00715
G1 X156.254 Y90.266 E.00587
G1 X138.178 Y72.19 E.80558
G1 X137.328 Y71.876 E.02857
G1 X156.517 Y91.065 E.85517
G1 X156.805 Y91.889 E.0275
G1 X136.478 Y71.562 E.9059
G1 X135.628 Y71.248 E.02857
G1 X157.093 Y92.713 E.95662
G1 X157.381 Y93.537 E.0275
M73 Q1 S68
G1 X134.828 Y70.984 E1.00507
G1 X134.106 Y70.798 E.02352
G1 X157.591 Y94.283 E1.04667
G1 X157.76 Y94.988 E.02284
G1 X133.383 Y70.611 E1.08639
G1 X132.661 Y70.424 E.02352
G1 X157.929 Y95.693 E1.12612
G1 X158.098 Y96.398 E.02284
G1 X131.938 Y70.238 E1.16585
G1 X131.287 Y70.123 E.02082
G1 X158.267 Y97.102 E1.20237
G1 X158.356 Y97.728 E.01992
G1 X130.655 Y70.026 E1.23456
G1 X130.022 Y69.93 E.02017
G1 X158.44 Y98.348 E1.26648
G1 X158.523 Y98.967 E.0197
G1 X129.389 Y69.833 E1.29839
G1 X128.757 Y69.736 E.02017
G1 X158.607 Y99.586 E1.33031
G1 X158.69 Y100.206 E.0197
G1 X128.156 Y69.671 E1.36081
G1 X127.591 Y69.643 E.01781
M73 P2 R68
M73 Q2 S68
G1 X158.744 Y100.796 E1.38838
G1 X158.763 Y101.35 E.01747
G1 X127.027 Y69.614 E1.41436
G1 X126.462 Y69.585 E.01781
G1 X158.781 Y101.904 E1.44033
G1 X158.799 Y102.458 E.01747
G1 X125.897 Y69.557 E1.4663
G1 X125.333 Y69.528 E.01781
M73 P2 R67
G1 X158.817 Y103.013 E1.49227
G1 X158.835 Y103.567 E.01747
G1 X124.791 Y69.523 E1.5172
G1 X124.281 Y69.549 E.0161
G1 X158.839 Y104.106 E1.54011
G1 X158.805 Y104.608 E.01584
G1 X123.771 Y69.574 E1.56132
G1 X123.261 Y69.6 E.0161
G1 X158.77 Y105.11 E1.58253
G1 X158.736 Y105.611 E.01584
G1 X122.75 Y69.626 E1.60374
G1 X122.24 Y69.651 E.0161
G1 X158.702 Y106.113 E1.62495
G1 X158.667 Y106.614 E.01584
G1 X121.73 Y69.677 E1.64615
G1 X121.252 Y69.735 E.01518
G1 X158.633 Y107.116 E1.66593
G1 X158.578 Y107.597 E.01526
G1 X120.787 Y69.806 E1.6842
G1 X120.322 Y69.877 E.01482
G1 X158.5 Y108.055 E1.70143
G1 X158.421 Y108.512 E.01463
M73 Q2 S67
G1 X119.857 Y69.948 E1.71866
G1 X119.392 Y70.019 E.01482
G1 X158.343 Y108.97 E1.73589
G1 X158.265 Y109.428 E.01463
M73 P3 R67
M73 Q3 S67
G1 X118.927 Y70.09 E1.75311
G1 X118.462 Y70.161 E.01482
G1 X158.186 Y109.885 E1.77034
G1 X158.108 Y110.343 E.01463
G1 X118.015 Y70.25 E1.78681
G1 X117.589 Y70.36 E.01386
G1 X158.026 Y110.797 E1.80214
G1 X157.909 Y111.216 E.01372
G1 X117.163 Y70.47 E1.81593
G1 X116.737 Y70.58 E.01386
G1 X157.793 Y111.636 E1.82972
G1 X157.677 Y112.055 E.01372
G1 X116.311 Y70.69 E1.84351
G1 X115.885 Y70.8 E.01386
G1 X157.56 Y112.475 E1.8573
G1 X157.444 Y112.894 E.01372
G1 X115.459 Y70.91 E1.87109
G1 X115.033 Y71.02 E.01386
M73 P3 R66
G1 X157.327 Y113.314 E1.88488
G1 X157.211 Y113.733 E.01372
G1 X114.63 Y71.153 E1.89767
G1 X114.238 Y71.297 E.01315
G1 X157.087 Y114.146 E1.9096
G1 X156.937 Y114.531 E.01304
G1 X113.847 Y71.442 E1.92034
G1 X113.456 Y71.586 E.01315
G1 X156.786 Y114.917 E1.93107
G1 X156.636 Y115.302 E.01304
M73 P4 R66
M73 Q4 S67
G1 X113.064 Y71.731 E1.94181
G1 X112.673 Y71.876 E.01315
G1 X156.485 Y115.688 E1.95255
G1 X156.335 Y116.074 E.01304
G1 X112.282 Y72.02 E1.96329
G1 X111.89 Y72.165 E.01315
G1 X156.185 Y116.459 E1.97402
G1 X156.034 Y116.845 E.01304
G1 X111.513 Y72.324 E1.98414
G1 X111.153 Y72.5 E.01263
M73 Q4 S66
G1 X155.884 Y117.23 E1.99347
G1 X155.704 Y117.586 E.01257
G1 X110.793 Y72.676 E2.00148
G1 X110.434 Y72.852 E.01263
G1 X155.522 Y117.941 E2.00943
G1 X155.341 Y118.295 E.01255
G1 X110.074 Y73.028 E2.01738
G1 X109.714 Y73.204 E.01263
G1 X155.159 Y118.65 E2.02533
G1 X154.978 Y119.004 E.01255
G1 X109.354 Y73.38 E2.03328
G1 X108.994 Y73.557 E.01263
G1 X154.796 Y119.359 E2.04123
G1 X154.615 Y119.713 E.01255
G1 X108.634 Y73.733 E2.04918
G1 X108.301 Y73.935 E.01229
M73 P5 R66
M73 Q5 S66
G1 X154.433 Y120.068 E2.05595
G1 X154.241 Y120.412 E.01241
M73 P5 R65
G1 X107.97 Y74.141 E2.06212
G1 X107.64 Y74.346 E.01226
G1 X154.031 Y120.737 E2.06746
G1 X153.82 Y121.063 E.01221
G1 X107.31 Y74.552 E2.07281
G1 X106.979 Y74.757 E.01226
G1 X153.61 Y121.388 E2.07815
G1 X153.399 Y121.713 E.01221
G1 X106.649 Y74.963 E2.0835
G1 X106.318 Y75.168 E.01226
G1 X153.189 Y122.039 E2.08884
G1 X152.978 Y122.364 E.01221
G1 X105.988 Y75.374 E2.09419
G1 X105.66 Y75.582 E.01223
